static/assets/images/products/kubestash/addons/mysql-stash-addon.svg

<svg width="32" height="32" viewBox="0 0 32 32" fill="none" xmlns="http://www.w3.org/2000/svg">
<g clip-path="url(#clip0)">
<path d="M15.6571 13.2C15.4857 12.6857 15.3428 12.1429 15.2285 11.6C15.2 11.4 15.1428 11.2 15.0857 11C15.0285 10.8 15.0285 10.7143 15.0285 10.5714C15.0285 10.4571 15 10.3429 14.9714 10.2C14.8571 9.91429 14.7143 9.62857 14.5714 9.34286L14.4285 9.08571C14.4 9 14.3428 8.91429 14.2857 8.82857C13.6285 8.02857 13.4571 6.94286 13.7714 5.97143C14.1143 5.25714 14.8571 4.85714 15.6285 4.97143C16.5714 5.17143 17.4571 5.65714 18.2 6.31429C18.3143 6.4 18.4 6.51429 18.5143 6.62857C18.5428 6.68571 18.6 6.74286 18.6571 6.77143L19.6571 6.94286L19.8857 7.02857C20.4857 7.2 21.0571 7.48571 21.5714 7.82857C21.9714 8.14286 22.3428 8.45714 22.7143 8.8V7.08571C22.6857 4.85714 17.6285 3 11.4 3C5.1714 3 0.114258 4.85714 0.114258 7.17143V10.4857C0.114258 12.7714 5.1714 14.6571 11.4 14.6571C12.9714 14.6571 14.5428 14.5429 16.1143 14.2857C15.9143 13.9143 15.7714 13.5429 15.6571 13.2Z" fill="#1971BD"/>
<path d="M21.6857 24.8288C21.6 24.7431 21.5143 24.6574 21.4286 24.6002C21.1714 24.3717 20.9429 24.1431 20.7429 23.8859C20.6571 23.7717 20.5429 23.6574 20.4286 23.5145C20.3143 23.4002 20.1714 23.2288 20.0286 23.0859C17.9714 23.8859 15.8 24.3431 13.6286 24.5145C14.1429 25.2859 14.3714 26.2288 14.2286 27.1431C14.0857 28.0859 13.6857 28.8859 13.1143 29.5145C18.3714 29.2288 22.4571 27.5717 22.6857 25.5717C22.3143 25.3717 21.9714 25.1145 21.6857 24.8288Z" fill="#1971BD"/>
<path d="M31.8286 27.9716L31.4857 27.5144C31.1714 26.943 30.7429 26.4287 30.2857 26.0001C29.9143 25.6287 29.0572 25.143 28.9429 24.6001L28.9143 24.5716C29.2286 24.543 29.5143 24.5144 29.8286 24.4287C30.2857 24.343 30.6857 24.4287 31.1429 24.343L31.7714 24.2287V24.1144C31.5714 23.8287 31.4286 23.4859 31.2 23.2287C30.6 22.543 29.9429 21.9144 29.2572 21.3144C28.8857 21.0001 28.4 20.7716 27.9714 20.4859C27.8286 20.4002 27.5714 20.3144 27.5143 20.1716C27.3429 19.8001 27.2 19.4287 27.0857 19.0573C26.8 18.2573 26.5143 17.4002 26.2572 16.543C26.1429 15.9716 25.9714 15.4287 25.7714 14.8859C24.8286 12.6287 23.2857 10.6573 21.3143 9.20015C20.8286 8.88586 20.2857 8.62872 19.7429 8.45729L18.7714 8.28586C18.5714 8.17158 18.4 7.88586 18.2286 7.74301C17.6572 7.22872 16.9429 6.85729 16.2 6.68586L16.2286 6.65729C15.7714 6.57158 15.2857 6.82872 15.1143 7.25729C14.6857 8.11443 15.4572 9.08586 15.7143 9.60015C15.9143 9.94301 16.1143 10.3144 16.2572 10.7144C16.3429 10.9716 16.3429 11.2001 16.4 11.4573C16.5143 12.1144 16.6857 12.7716 16.8857 13.4001C17 13.7144 17.1143 14.0001 17.2572 14.2859C17.3429 14.4573 17.5429 14.543 17.5429 14.8001C17.3714 15.1144 17.2286 15.4573 17.1429 15.8001C16.5429 17.2859 16.4857 18.9716 17.0572 20.4859C17.2286 20.8573 17.6286 21.6573 18.3143 21.4573C18.9143 21.2573 18.8572 20.4573 19.1143 19.8001C19.1714 19.6573 19.1429 19.5144 19.2286 19.4287V19.4573C19.3714 19.8573 19.5143 20.2573 19.6572 20.6573C20.0286 21.4001 20.5429 22.0859 21.1429 22.6859C21.4 23.0002 21.6857 23.3144 22 23.6001C22.6286 24.0859 22.2286 24.2287 26.8 26.4287C26.8572 26.4859 28.6 27.2573 29.5429 27.6573C30.3429 28.0002 31.2 28.2573 32.0572 28.4859V28.4287C31.9143 28.2859 31.9143 28.1144 31.8286 27.9716ZM19.5143 11.1144C19.4286 11.1716 19.3429 11.2287 19.2572 11.2573C19.1429 10.743 18.9429 10.2287 18.6286 9.77158C18.2286 9.45729 18.7429 9.02872 19.1714 9.17158C19.2 9.17158 19.2286 9.17158 19.2857 9.17158C19.4857 9.20015 19.6 9.37158 19.7714 9.54301C20.1429 10.0287 20.0286 10.743 19.5143 11.1144Z" fill="#1971BD"/>
<path d="M0.657115 16.7429C2.82854 16.2857 4.79997 16.7429 6.42854 18.3429C6.5714 18.4857 6.85711 18.6 7.08569 18.6C9.08568 18.6286 10.7428 19.8857 11.0857 21.8572C11.1143 21.9714 11.1428 22.0571 11.1428 22.1429C11.2285 22.1429 11.2857 22.1429 11.3714 22.1429C13 22.1429 14.6285 22 16.2285 21.7429C16.0571 21.5143 15.9143 21.2857 15.8285 21.0286C15.3143 19.7143 15.2 18.2571 15.4857 16.8571C14.1143 17.0571 12.7428 17.1429 11.3714 17.1429C5.1714 17.1429 0.114258 15.2857 0.114258 12.9714V16.8857C0.285686 16.8286 0.457115 16.7714 0.657115 16.7429Z" fill="#1971BD"/>
<path d="M4.42857 20.5715C5.82857 21.9715 7.28572 23.4001 8.77143 24.8858C8.08572 24.8858 7.4 24.8858 6.65714 24.8858C6.65714 26.4001 6.65714 27.8858 6.65714 29.3715C5.11429 29.3715 3.65714 29.3715 2.14286 29.3715C2.14286 27.8858 2.14286 26.4287 2.14286 24.9144C1.4 24.9144 0.714286 24.9144 0 24.9144C1.51429 23.4572 2.97143 22.0001 4.42857 20.5715Z" fill="#1971BD"/>
</g>
<defs>
<clipPath id="clip0">
<rect width="32" height="26.5429" fill="white" transform="translate(0 3)"/>
</clipPath>
</defs>
</svg>

<svg xmlns="http://www.w3.org/2000/svg" width="32" height="32" fill="none" xmlns:v="https://vecta.io/nano"><g clip-path="url(#A)" fill="#1971bd"><path d="M15.657 13.2a14.63 14.63 0 0 1-.429-1.6c-.029-.2-.086-.4-.143-.6s-.057-.286-.057-.429c0-.114-.028-.229-.057-.371a11.51 11.51 0 0 0-.4-.857l-.143-.257c-.028-.086-.086-.171-.143-.257-.657-.8-.829-1.886-.514-2.857.343-.714 1.086-1.114 1.857-1 .943.2 1.829.686 2.571 1.343.114.086.2.2.314.314.029.057.086.114.143.143l1 .171.229.086c.6.171 1.171.457 1.686.8l1.143.971V7.086C22.686 4.857 17.629 3 11.4 3S.114 4.857.114 7.171v3.314c0 2.286 5.057 4.171 11.286 4.171a29.12 29.12 0 0 0 4.714-.371c-.2-.371-.343-.743-.457-1.086zm6.029 11.629c-.086-.086-.171-.171-.257-.229-.257-.229-.486-.457-.686-.714-.086-.114-.2-.229-.314-.371l-.4-.429c-2.057.8-4.229 1.257-6.4 1.429a3.73 3.73 0 0 1 .6 2.629c-.143.943-.543 1.743-1.114 2.371 5.257-.286 9.343-1.943 9.571-3.943-.371-.2-.714-.457-1-.743zm10.143 3.143l-.343-.457a6.23 6.23 0 0 0-1.2-1.514c-.371-.371-1.228-.857-1.343-1.4l-.029-.029a5.07 5.07 0 0 0 .914-.143c.457-.086.857 0 1.314-.086l.628-.114v-.114c-.2-.286-.343-.628-.571-.886-.6-.686-1.257-1.314-1.943-1.914-.372-.314-.857-.543-1.286-.828-.143-.086-.4-.172-.457-.314a8.93 8.93 0 0 1-.429-1.114l-.828-2.514c-.114-.571-.286-1.114-.486-1.657a13.6 13.6 0 0 0-4.457-5.686 6.64 6.64 0 0 0-1.571-.743l-.971-.171c-.2-.114-.371-.4-.543-.543a4.62 4.62 0 0 0-2.029-1.057l.029-.029a1.02 1.02 0 0 0-1.114.6c-.429.857.343 1.829.6 2.343a6.73 6.73 0 0 1 .543 1.114c.086.257.086.486.143.743.114.657.286 1.314.486 1.943l.372.886c.086.171.286.257.286.514a4.3 4.3 0 0 0-.4 1c-.6 1.486-.657 3.171-.086 4.686.171.371.571 1.171 1.257.971.6-.2.543-1 .8-1.657.057-.143.029-.286.114-.371v.029l.429 1.2a7.89 7.89 0 0 0 1.486 2.029A8.55 8.55 0 0 0 22 23.6c.629.486.229.629 4.8 2.829.057.057 1.8.829 2.743 1.229.8.343 1.657.6 2.514.829v-.057c-.143-.143-.143-.314-.229-.457zM19.514 11.114c-.086.057-.171.114-.257.143a4.24 4.24 0 0 0-.629-1.486c-.4-.314.114-.743.543-.6h.114c.2.029.314.2.486.371.372.486.257 1.2-.257 1.571zM.657 16.743c2.171-.457 4.143 0 5.771 1.6.143.143.429.257.657.257 2 .029 3.657 1.286 4 3.257.029.114.057.2.057.286h.229c1.629 0 3.257-.143 4.857-.4-.171-.229-.314-.457-.4-.714-.514-1.314-.629-2.771-.343-4.172a28.45 28.45 0 0 1-4.114.286c-6.2 0-11.257-1.857-11.257-4.172v3.914c.171-.057.343-.114.543-.143zm3.772 3.829l4.343 4.314H6.657v4.486H2.143v-4.457H0l4.429-4.343z"/></g><defs><clipPath id="A"><path fill="#fff" transform="translate(0 3)" d="M0 0h32v26.543H0z"/></clipPath></defs></svg>
